X:1
T:Southwind
L:1/4
M:3/4
I:linebreak $
K:G
V:1 treble
V:1
 d/c/ | "G"B3/2 A/ G | B c d | ("D"A3 | "D/F#"A2)d/c/ | "G"B3/2 A/ G | "C"E D E | "G"(G3 | G2) d/c/ |$
 "G"B3/2 A/ G | B c d |  "D"A3/2 G/F/G/ | "D/F#"A2 d/c/ | "G"B3/2 A/ G |"C" E D E | "G"(G3 | G) B d || "G"g2g|$
 "G"g>f e | ("G"d3 | "G/F#"d2) d | "Em"B3/2 A/ G |  "Am"B c d | ("D"A3 | "D/F#"A2) d | "C"g2 g | g3/2 f/ e | "G"d3 |$
 d2 c |"Em" B3/2 A/ G |"D" A/ c3/2 F |"G" G2 |"(D)" G2 |]
